public/svgs/thin/wallet.svg

<svg xmlns="http://www.w3.org/2000/svg" viewBox="0 0 512 512"><!-- Font Awesome Pro 6.0.0-alpha2 by @fontawesome - https://fontawesome.com License - https://fontawesome.com/license (Commercial License) --><path d="M440 112H72C67.594 112 64 115.594 64 120S67.594 128 72 128H440C470.875 128 496 153.125 496 184V408C496 438.875 470.875 464 440 464H72C41.125 464 16 438.875 16 408V104C16 73.125 41.125 48 72 48H472C476.406 48 480 44.406 480 40S476.406 32 472 32H72C32.312 32 0 64.312 0 104V408C0 447.688 32.312 480 72 480H440C479.688 480 512 447.688 512 408V184C512 144.312 479.688 112 440 112ZM440 296C440 273.938 422.062 256 400 256S360 273.938 360 296S377.938 336 400 336S440 318.062 440 296ZM376 296C376 282.781 386.781 272 400 272S424 282.781 424 296S413.219 320 400 320S376 309.219 376 296Z"/></svg>

<svg xmlns="http://www.w3.org/2000/svg" viewBox="0 0 512 512"><!--! Font Awesome Pro 6.5.1 by @fontawesome - https://fontawesome.com License - https://fontawesome.com/license (Commercial License) Copyright 2023 Fonticons, Inc. --><path d="M72 32C32.2 32 0 64.2 0 104V408c0 39.8 32.2 72 72 72H440c39.8 0 72-32.2 72-72V184c0-39.8-32.2-72-72-72H72c-4.4 0-8 3.6-8 8s3.6 8 8 8H440c30.9 0 56 25.1 56 56V408c0 30.9-25.1 56-56 56H72c-30.9 0-56-25.1-56-56V104c0-30.9 25.1-56 56-56H472c4.4 0 8-3.6 8-8s-3.6-8-8-8H72zM376 296a24 24 0 1 1 48 0 24 24 0 1 1 -48 0zm64 0a40 40 0 1 0 -80 0 40 40 0 1 0 80 0z"/></svg>
